X:2644
L:1/8
M:2/4
K:D
 [Af]2 (f>d) | f2 (f>d) | [Af]2 (f>d) | c>A e>c | f2 (f>d) | g>fe>d | (c>A)(e>c) | d2 D2 :: 
 a2 a>f | b2 b>a | (g>f)g>e | a2 a>g | f2 f>d | TB2 (g>e) | c>AB>c | d2 df |{f} a2 a>f | 
{ga} b2 b>a |{a} g>fg>e |{^g} a2 a>=g |{g} f2 f>d | B2 (g>e) | (c>A)(B>c) | [FAd]2 z2 |]

